X: 68
T:Iomramh eadar Il'as Uist
M:6/8
L:1/8
S:Rebecca Knorr
Z:Jack Campin
Z:http://www.purr.demon.co.uk/jack/jack.html
K:BMin
F|B2B d2e|c2B c2e|B2B f2f|gfe f2c|
d2d e2d|c2B c2e|gfe f2c|[1 d2B AB:|[2 B2c d2|]
A|F2F F2E|F2F d2e|c2B A2F|E2D E2G|
F2F F2E|F2F d2e|c2B A2c|B3- B2:|
<end>
<start>
